icons/mobile/24/svg/lightning-filled-24.svg

<svg width="24" height="24" viewBox="0 0 24 24" fill="none" xmlns="http://www.w3.org/2000/svg">
<path d="M9.36729 3.25742C10.8481 2.94548 12.4009 2.91563 13.8897 3.16757C14.4517 3.26456 14.9378 3.60891 15.2208 4.11484C15.5128 4.63584 15.5532 5.25422 15.3302 5.80722L14.1817 8.66952C15.5027 8.64752 16.7889 8.70121 18.0909 8.84921C18.8099 8.93222 19.3991 9.38604 19.6661 10.065C19.934 10.745 19.807 11.5121 19.3341 12.066L12.3067 20.3053C11.9198 20.7591 11.3928 20.9996 10.8429 20.9996C10.5649 20.9996 10.2819 20.9381 10.0069 20.8131C9.18904 20.4351 8.75277 19.6151 8.89561 18.7232L9.67881 13.8228C8.65994 13.8048 7.63204 13.7181 6.62217 13.5592C6.0592 13.4722 5.56557 13.1362 5.27256 12.6383C4.97261 12.1294 4.91835 11.5203 5.12022 10.9664L7.27158 5.09335C7.61858 4.14835 8.40229 3.46142 9.36729 3.25742Z" fill="black"/>
</svg>

<!-- This Source Code Form is subject to the terms of the Mozilla Public
   - License, v. 2.0. If a copy of the MPL was not distributed with this
   - file, You can obtain one at http://mozilla.org/MPL/2.0/. -->
<svg xmlns="http://www.w3.org/2000/svg" width="24" height="24" fill="none" viewBox="0 0 24 24">
    <path fill="#000" d="M9.367 3.257a12.2 12.2 0 0 1 4.523-.09 1.89 1.89 0 0 1 1.33.948c.293.52.333 1.14.11 1.692L14.182 8.67a30 30 0 0 1 3.909.18 1.9 1.9 0 0 1 1.575 1.215c.268.68.141 1.447-.332 2.001l-7.027 8.24a1.91 1.91 0 0 1-2.3.507 1.92 1.92 0 0 1-1.111-2.09l.783-4.9a22 22 0 0 1-3.057-.264 1.9 1.9 0 0 1-1.35-.92 1.96 1.96 0 0 1-.152-1.673l2.152-5.873a2.86 2.86 0 0 1 2.095-1.836" />
</svg>
